X: 23916
T: Loch Of Lumgair
R: jig
M: 6/8
K: Cdorian
K: Bb Major
F/E|D>FB d>cB|e3 G2 E|D>FB B>cd|d3 c2 F|
D>FB d>cB|e3 G2 B|A>cf e>dc|B3 B>FE|
D>FB d>cB|e3 G2 E|D>FB B>cd|d3 c2 F|
D>FB d>cB|e2 G c>BG|A>cf e>dc|B3 B3/2||
d/e|f>dB B>FD|E>GB e2 c|d>fd B>AB|c>AF F>de|
f>dB B>FD|E>GB e2 c|d>fd e>cA|B3 B>de|
f>dB B>FD|E>GB e2 c|d>fd B>AB|c>AF F>EC|
D>FB d>cB|e2 G c>BG|A>cf e>dc|B3 B3/2||

